X: 24525
T: Lucy Farr's
R: barndance
M: 4/4
K: Dmajor
(3ABc|:d2d2 d2d2|defd B2A2|f2f2 f2f2|fgaf e4|
fgaf d2d2|defd B2A2|ABde faaf|e2d2 d4:|
|:fgaf d2d2|defd B2A2|ABde faaf|f2e2 e4|
fgaf d2d2|defd B2A2|ABde faaf|edd2 d4:|

